X: 030179
T: Cuban [The]
S: "Johnny O'Leary of Sliabh Luachra" (#7)
Z: B.Black
Q: 275
L: 1/8
M: 2/4
R: polka
K: G
dB|: A2 BA|A/B/c/A/ d2|E>D G/E/D|E>D G/E/D|
A>A BA|A/B/c/A/ d2|E/F/E/D/ GE|1 D2 DE/G/ :|2\
D2 Ddc||
BD BD|BD c>B|AA/G/ AG|FA dd/c/|
BD BD|BD c>B|A/B/A/G/ F/D/E/F/|1 G2 Gdc :|2\
G2 G2||
